icons/Logos/open-source-line.svg

<svg viewBox="0 0 24 24" xmlns="http://www.w3.org/2000/svg"><path d="M12.001 2C17.5238 2 22.001 6.47715 22.001 12C22.001 16.3996 19.1598 20.1355 15.2122 21.4732L14.9859 21.5469L12.082 13.997C13.151 13.95 14.001 13.0544 14.001 12C14.001 10.8954 13.1055 10 12.001 10C10.8964 10 10.001 10.8954 10.001 12C10.001 13.0768 10.8519 13.9548 11.918 13.9983L9.01501 21.5466L8.78975 21.4732C4.84212 20.1355 2.00098 16.3996 2.00098 12C2.00098 6.47715 6.47813 2 12.001 2ZM12.001 4C7.5827 4 4.00098 7.58172 4.00098 12C4.00098 14.9201 5.56547 17.4747 7.90198 18.8715L9.38145 15.023C8.5358 14.2896 8.00098 13.2073 8.00098 12C8.00098 9.79086 9.79184 8 12.001 8C14.2101 8 16.001 9.79086 16.001 12C16.001 13.2075 15.466 14.29 14.62 15.0234C15.1861 16.4969 15.6797 17.7803 16.0998 18.8729C18.4362 17.4751 20.001 14.9203 20.001 12C20.001 7.58172 16.4193 4 12.001 4Z"/></svg>

<svg xmlns="http://www.w3.org/2000/svg" viewBox="0 0 24 24">
    <g>
        <path fill="none" d="M0 0H24V24H0z"/>
        <path d="M12 2c5.523 0 10 4.477 10 10 0 4.4-2.841 8.136-6.789 9.473l-.226.074-2.904-7.55C13.15 13.95 14 13.054 14 12c0-1.105-.895-2-2-2s-2 .895-2 2c0 1.077.851 1.955 1.917 1.998l-2.903 7.549-.225-.074C4.84 20.136 2 16.4 2 12 2 6.477 6.477 2 12 2zm0 2c-4.418 0-8 3.582-8 8 0 2.92 1.564 5.475 3.901 6.872l1.48-3.849C8.534 14.29 8 13.207 8 12c0-2.21 1.79-4 4-4s4 1.79 4 4c0 1.207-.535 2.29-1.38 3.023.565 1.474 1.059 2.757 1.479 3.85C18.435 17.475 20 14.92 20 12c0-4.418-3.582-8-8-8z"/>
    </g>
</svg>
